frontend/public/svg/e-commerce/shopping-cart.svg

<svg width="145" height="140" viewBox="0 0 145 140" fill="none" xmlns="http://www.w3.org/2000/svg">
<path d="M4.12464 7.79783C4.64408 8.09325 5.1868 8.34581 5.74722 8.55321C6.98376 8.99559 8.21942 9.44071 9.45419 9.88834C12.9092 11.1354 16.4817 12.427 20.0292 13.6097C24.6445 15.1488 29.3694 16.6071 33.9388 18.0169L35.7635 18.58C36.6293 18.7856 37.411 19.2524 38.0028 19.917C38.5946 20.5816 38.9678 21.4119 39.0721 22.2956C39.4403 24.325 39.8597 26.3766 40.2666 28.3594C40.6342 30.1532 41.0142 32.0069 41.3535 33.8341C41.883 36.6869 42.4228 39.5383 42.9728 42.3886C44.422 49.9693 45.9204 57.8082 47.0893 65.5575C47.7457 69.889 48.1394 74.3403 48.5279 78.6466C48.8797 82.5787 49.2439 86.6453 49.8018 90.6247L49.9502 91.6801C50.6616 96.7339 51.3344 101.505 51.2675 106.513C51.1428 115.877 54.8715 119.81 64.5662 120.541C71.9628 121.099 79.4076 121.293 86.8295 121.293C95.5115 121.293 104.157 121.031 112.652 120.768C119.543 120.557 126.676 120.338 133.685 120.265H133.859C134.759 120.295 135.659 120.208 136.537 120.006L136.974 119.886C138.31 119.595 139.594 119.102 140.781 118.423C141.621 117.912 142.313 117.189 142.787 116.326C143.261 115.463 143.5 114.492 143.48 113.508C143.433 112.564 143.14 111.649 142.629 110.855C142.119 110.06 141.409 109.413 140.57 108.979C138.782 108.054 136.793 107.589 134.78 107.624C129.464 107.713 124.067 107.873 118.846 108.026C112.032 108.227 104.987 108.433 98.0607 108.485C90.2877 108.544 82.3808 108.373 74.7325 108.205C71.7357 108.139 68.7382 108.077 65.7405 108.021C65.1515 107.991 64.5654 107.921 63.9866 107.808C63.7326 107.766 63.4616 107.72 63.1656 107.676L60.7418 95.1758L62.8749 94.9697C64.7396 94.7885 66.4538 94.6218 68.1698 94.4741L78.1205 93.6202C90.6933 92.5373 103.695 91.4176 116.485 90.3615C121.433 89.9526 124.728 87.5787 126.561 83.1044L127.132 81.7005C128.221 78.85 129.484 76.0685 130.913 73.3716C134.785 66.4374 137.623 58.9586 140.365 51.7251L141.073 49.8625C142.611 45.8207 144.368 40.431 144.304 34.5699C144.25 29.7445 142.06 27.4158 137.201 27.022C136.519 26.9676 135.856 26.9636 135.123 26.9676C129.661 26.992 124.2 27.0112 118.739 27.0253C104.998 27.0679 90.7878 27.1126 76.8124 27.2819C71.3261 27.3476 65.7588 27.6604 60.3742 27.963C57.7718 28.1093 55.1701 28.256 52.5671 28.3754C52.0019 28.4003 51.4191 28.3935 50.8028 28.387L50.3604 28.3824C50.1854 27.6491 50.0129 26.9216 49.8432 26.2C49.3667 24.1804 48.9164 22.2725 48.4189 20.333C47.122 15.2727 44.2073 12.1368 39.5099 10.7447C32.4424 8.6516 25.2897 6.40093 18.3758 4.22517C15.035 3.17503 11.6931 2.12839 8.35016 1.08482C7.65418 0.875362 6.93604 0.74796 6.21047 0.70537C4.61097 0.602325 2.41032 0.747514 1.77826 3.24291C1.29455 5.16401 2.06046 6.65386 4.12464 7.79783ZM51.8707 35.0942C52.5959 35.0601 53.3146 35.022 54.0222 34.9853C56.1323 34.8756 58.1256 34.7713 60.1412 34.7647C64.5452 34.7529 69.0224 34.7739 73.3522 34.7943C77.0277 34.8126 80.7032 34.8239 84.3787 34.8282C90.5548 34.8239 96.731 34.8122 102.908 34.7929C111.207 34.7715 119.507 34.7593 127.807 34.7567C129.567 34.7567 131.372 34.8835 133.285 35.0147C133.991 35.0646 134.72 35.1146 135.48 35.1612C135.194 36.1313 134.934 37.0769 134.68 37.9977C134.092 40.3528 133.342 42.6643 132.434 44.9156C130.006 50.5253 127.362 56.1612 124.807 61.6121C123.847 63.6595 122.89 65.7081 121.936 67.7579C120.696 70.4299 119.446 73.0972 118.091 75.989L116.221 79.9802L59.3293 85.3727C58.4793 70.3255 56.1021 54.3039 51.8707 35.0942Z" fill="black"/>
<path d="M123.261 138.731C125.769 138.716 128.168 137.708 129.936 135.929C130.699 135.187 131.306 134.3 131.723 133.321C132.14 132.341 132.358 131.289 132.364 130.225C132.33 125.727 128.019 121.589 123.319 121.544H123.232C120.919 121.538 118.695 122.437 117.036 124.049C115.376 125.661 114.413 127.857 114.352 130.17C114.329 131.264 114.526 132.351 114.933 133.367C115.338 134.383 115.945 135.308 116.715 136.085C117.569 136.94 118.586 137.614 119.705 138.069C120.824 138.523 122.022 138.749 123.23 138.732L123.261 138.731Z" fill="black"/>
<path d="M69.5234 139.376H69.5891C71.8016 139.345 73.9183 138.47 75.5053 136.927C77.0923 135.385 78.0282 133.294 78.1214 131.083C78.1825 126.305 73.934 121.703 69.3803 121.616C67.1796 121.648 65.0799 122.544 63.5335 124.11C61.7366 125.807 60.6843 128.146 60.6069 130.617C60.6247 131.74 60.8644 132.85 61.3125 133.881C61.7606 134.912 62.4082 135.844 63.2179 136.624C64.8747 138.337 67.1409 139.326 69.5234 139.376Z" fill="black"/>
</svg>

<svg xmlns="http://www.w3.org/2000/svg" width="145" height="140" fill="none" viewBox="0 0 145 140"><path fill="#000" d="M4.125 7.798q.781.444 1.622.755 1.855.665 3.707 1.335c3.455 1.247 7.028 2.539 10.575 3.722 4.616 1.539 9.34 2.997 13.91 4.407l1.825.563a4.34 4.34 0 0 1 3.308 3.716c.368 2.029.788 4.08 1.195 6.063.367 1.794.747 3.648 1.086 5.475q.795 4.279 1.62 8.555c1.449 7.58 2.947 15.42 4.116 23.169.657 4.331 1.05 8.782 1.439 13.089.352 3.932.716 7.998 1.274 11.978l.148 1.055c.712 5.054 1.384 9.825 1.317 14.833-.124 9.364 3.604 13.297 13.3 14.028 7.396.558 14.84.752 22.263.752 8.682 0 17.327-.262 25.822-.525 6.891-.211 14.024-.43 21.033-.503h.174c.9.03 1.8-.057 2.678-.259l.437-.12a13.4 13.4 0 0 0 3.807-1.463 5.62 5.62 0 0 0 2.699-4.915 5.4 5.4 0 0 0-2.91-4.529 12.14 12.14 0 0 0-5.79-1.355c-5.316.089-10.713.249-15.934.402-6.814.201-13.859.407-20.785.459-7.773.059-15.68-.112-23.329-.28a2692 2692 0 0 0-8.992-.184 12.5 12.5 0 0 1-1.753-.213q-.379-.064-.821-.132l-2.424-12.5 2.133-.206c1.865-.181 3.579-.348 5.295-.496l9.95-.854c12.573-1.083 25.575-2.202 38.365-3.258 4.948-.41 8.243-2.783 10.076-7.258l.571-1.403a75 75 0 0 1 3.781-8.33c3.872-6.934 6.71-14.412 9.452-21.646l.708-1.863c1.538-4.041 3.295-9.431 3.231-15.292-.054-4.826-2.244-7.154-7.103-7.548a24 24 0 0 0-2.078-.054q-8.193.036-16.384.057c-13.741.043-27.951.088-41.927.257-5.486.066-11.053.378-16.438.681-2.602.146-5.204.293-7.807.412-.565.025-1.148.018-1.764.012l-.443-.005q-.262-1.1-.517-2.182a309 309 0 0 0-1.424-5.867c-1.297-5.06-4.212-8.196-8.91-9.588-7.067-2.093-14.22-4.344-21.133-6.52Q13.364 2.65 8.35 1.085a9.3 9.3 0 0 0-2.14-.38C4.611.602 2.41.748 1.778 3.243c-.483 1.921.282 3.41 2.347 4.555M51.87 35.094q1.089-.052 2.151-.109c2.11-.11 4.104-.214 6.12-.22 4.403-.012 8.88.009 13.21.03q5.514.027 11.027.033 9.264-.006 18.529-.035 12.449-.032 24.899-.036c1.76 0 3.565.127 5.478.258q1.057.076 2.195.146c-.286.97-.546 1.916-.8 2.837a52.5 52.5 0 0 1-2.246 6.918c-2.428 5.61-5.072 11.245-7.627 16.696q-1.44 3.07-2.871 6.146c-1.24 2.672-2.49 5.34-3.845 8.231l-1.87 3.991-56.892 5.393c-.85-15.047-3.227-31.07-7.458-50.279m71.391 103.637a9.5 9.5 0 0 0 6.675-2.802 8.02 8.02 0 0 0 2.428-5.704c-.034-4.498-4.345-8.636-9.045-8.681h-.087a8.86 8.86 0 0 0-8.88 8.626 8.15 8.15 0 0 0 2.363 5.915 9.04 9.04 0 0 0 6.515 2.647zm-53.738.645h.066a8.66 8.66 0 0 0 8.532-8.293c.062-4.778-4.187-9.38-8.74-9.467a8.4 8.4 0 0 0-5.848 2.494 9.35 9.35 0 0 0-2.926 6.507 8.53 8.53 0 0 0 2.61 6.007 9.04 9.04 0 0 0 6.306 2.752"/></svg>
